img/logo-instagram-dark.svg

<svg fill="none" height="230" viewBox="0 0 230 230" width="230" xmlns="http://www.w3.org/2000/svg"><path clip-rule="evenodd" d="m115 0c31.232 0 35.148.132386 47.414.692047 12.241.558293 20.601 2.502493 27.915 5.345533 7.563 2.93845 13.976 6.87072 20.37 13.26382 6.393 6.3937 10.325 12.807 13.264 20.3692 2.842 7.3149 4.787 15.6746 5.345 27.915.56 12.266.692 16.1823.692 47.4144 0 31.232-.132 35.148-.692 47.414-.558 12.241-2.503 20.601-5.345 27.915-2.939 7.563-6.871 13.976-13.264 20.37-6.394 6.393-12.807 10.325-20.37 13.264-7.314 2.842-15.674 4.787-27.915 5.345-12.266.56-16.182.692-47.414.692-31.2321 0-35.1484-.132-47.4144-.692-12.2404-.558-20.6001-2.503-27.915-5.345-7.5622-2.939-13.9755-6.871-20.3692-13.264-6.3931-6.394-10.32537-12.807-13.26382-20.37-2.84304-7.314-4.78724-15.674-5.345533-27.915-.559661-12.266-.692047-16.182-.692047-47.414 0-31.2321.132386-35.1484.692047-47.4144.558293-12.2404 2.502493-20.6001 5.345533-27.915 2.93845-7.5622 6.87072-13.9755 13.26382-20.3692 6.3937-6.3931 12.807-10.32537 20.3692-13.26382 7.3149-2.84304 15.6746-4.78724 27.915-5.345533 12.266-.559661 16.1823-.692047 47.4144-.692047zm0 20.7207c-30.7062 0-34.3436.1173-46.4699.6706-11.2124.5112-17.3015 2.3847-21.3538 3.9596-5.3679 2.0862-9.1988 4.5782-13.2228 8.6026-4.0244 4.024-6.5164 7.8549-8.6026 13.2228-1.5749 4.0523-3.4484 10.1414-3.9596 21.3538-.5533 12.1263-.6706 15.7637-.6706 46.4699 0 30.706.1173 34.344.6706 46.47.5112 11.212 2.3847 17.301 3.9596 21.354 2.0862 5.368 4.5786 9.198 8.6026 13.222 4.024 4.025 7.8549 6.517 13.2228 8.603 4.0523 1.575 10.1414 3.448 21.3538 3.96 12.125.553 15.7614.67 46.4699.67 30.709 0 34.345-.117 46.47-.67 11.212-.512 17.301-2.385 21.354-3.96 5.368-2.086 9.198-4.578 13.222-8.603 4.025-4.024 6.517-7.854 8.603-13.222 1.575-4.053 3.448-10.142 3.96-21.354.553-12.126.67-15.764.67-46.47 0-30.7062-.117-34.3436-.67-46.4699-.512-11.2124-2.385-17.3015-3.96-21.3538-2.086-5.3679-4.578-9.1988-8.603-13.2228-4.024-4.0244-7.854-6.5164-13.222-8.6026-4.053-1.5749-10.142-3.4484-21.354-3.9596-12.126-.5533-15.764-.6706-46.47-.6706zm0 132.6123c21.171 0 38.333-17.162 38.333-38.333s-17.162-38.3333-38.333-38.3333-38.3333 17.1623-38.3333 38.3333 17.1623 38.333 38.3333 38.333zm0-97.387c32.615 0 59.054 26.4392 59.054 59.054 0 32.615-26.439 59.054-59.054 59.054-32.6148 0-59.054-26.439-59.054-59.054 0-32.6148 26.4392-59.054 59.054-59.054zm75.187-2.3332c0 7.6216-6.178 13.7998-13.8 13.7998-7.621 0-13.8-6.1782-13.8-13.7998s6.179-13.8002 13.8-13.8002c7.622 0 13.8 6.1786 13.8 13.8002z" fill="#25282b" fill-rule="evenodd"/></svg>

<svg width="230" height="230" viewBox="0 0 230 230" fill="none" xmlns="http://www.w3.org/2000/svg">
<path fill-rule="evenodd" clip-rule="evenodd" d="M115 0C146.232 0 150.148 0.132386 162.414 0.692047C174.655 1.25034 183.015 3.19454 190.329 6.03758C197.892 8.97603 204.305 12.9083 210.699 19.3014C217.092 25.6951 221.024 32.1084 223.963 39.6706C226.805 46.9855 228.75 55.3452 229.308 67.5856C229.868 79.8516 230 83.7679 230 115C230 146.232 229.868 150.148 229.308 162.414C228.75 174.655 226.805 183.015 223.963 190.329C221.024 197.892 217.092 204.305 210.699 210.699C204.305 217.092 197.892 221.024 190.329 223.963C183.015 226.805 174.655 228.75 162.414 229.308C150.148 229.868 146.232 230 115 230C83.7679 230 79.8516 229.868 67.5856 229.308C55.3452 228.75 46.9855 226.805 39.6706 223.963C32.1084 221.024 25.6951 217.092 19.3014 210.699C12.9083 204.305 8.97603 197.892 6.03758 190.329C3.19454 183.015 1.25034 174.655 0.692047 162.414C0.132386 150.148 0 146.232 0 115C0 83.7679 0.132386 79.8516 0.692047 67.5856C1.25034 55.3452 3.19454 46.9855 6.03758 39.6706C8.97603 32.1084 12.9083 25.6951 19.3014 19.3014C25.6951 12.9083 32.1084 8.97603 39.6706 6.03758C46.9855 3.19454 55.3452 1.25034 67.5856 0.692047C79.8516 0.132386 83.7679 0 115 0V0ZM115 20.7207C84.2938 20.7207 80.6564 20.838 68.5301 21.3913C57.3177 21.9025 51.2286 23.776 47.1763 25.3509C41.8084 27.4371 37.9775 29.9291 33.9535 33.9535C29.9291 37.9775 27.4371 41.8084 25.3509 47.1763C23.776 51.2286 21.9025 57.3177 21.3913 68.5301C20.838 80.6564 20.7207 84.2938 20.7207 115C20.7207 145.706 20.838 149.344 21.3913 161.47C21.9025 172.682 23.776 178.771 25.3509 182.824C27.4371 188.192 29.9295 192.022 33.9535 196.046C37.9775 200.071 41.8084 202.563 47.1763 204.649C51.2286 206.224 57.3177 208.097 68.5301 208.609C80.6551 209.162 84.2915 209.279 115 209.279C145.709 209.279 149.345 209.162 161.47 208.609C172.682 208.097 178.771 206.224 182.824 204.649C188.192 202.563 192.022 200.071 196.046 196.046C200.071 192.022 202.563 188.192 204.649 182.824C206.224 178.771 208.097 172.682 208.609 161.47C209.162 149.344 209.279 145.706 209.279 115C209.279 84.2938 209.162 80.6564 208.609 68.5301C208.097 57.3177 206.224 51.2286 204.649 47.1763C202.563 41.8084 200.071 37.9775 196.046 33.9535C192.022 29.9291 188.192 27.4371 182.824 25.3509C178.771 23.776 172.682 21.9025 161.47 21.3913C149.344 20.838 145.706 20.7207 115 20.7207V20.7207ZM115 153.333C136.171 153.333 153.333 136.171 153.333 115C153.333 93.829 136.171 76.6667 115 76.6667C93.829 76.6667 76.6667 93.829 76.6667 115C76.6667 136.171 93.829 153.333 115 153.333V153.333ZM115 55.946C147.615 55.946 174.054 82.3852 174.054 115C174.054 147.615 147.615 174.054 115 174.054C82.3852 174.054 55.946 147.615 55.946 115C55.946 82.3852 82.3852 55.946 115 55.946V55.946ZM190.187 53.6128C190.187 61.2344 184.009 67.4126 176.387 67.4126C168.766 67.4126 162.587 61.2344 162.587 53.6128C162.587 45.9912 168.766 39.8126 176.387 39.8126C184.009 39.8126 190.187 45.9912 190.187 53.6128Z" fill="#25282B"/>
</svg>
